icons/opensuse/opensuse-original-wordmark.svg

<?xml version="1.0" encoding="UTF-8"?>
<svg xmlns="http://www.w3.org/2000/svg" xmlns:xlink="http://www.w3.org/1999/xlink" width="128px" height="128px" viewBox="0 0 128 82" version="1.1">
<g id="surface1">
<path style=" stroke:none;fill-rule:evenodd;fill:rgb(45.098039%,72.941176%,14.509804%);fill-opacity:1;" d="M 109.433594 13.289062 C 108.191406 13.242188 107.007812 13.679688 106.105469 14.515625 C 105.207031 15.355469 104.671875 16.488281 104.636719 17.71875 C 104.550781 20.257812 106.558594 22.390625 109.117188 22.484375 C 110.359375 22.523438 111.546875 22.085938 112.453125 21.25 C 113.359375 20.410156 113.878906 19.273438 113.917969 18.050781 C 114.007812 15.511719 112 13.378906 109.433594 13.289062 Z M 110.195312 18.316406 C 109.054688 18.316406 108.132812 17.707031 108.132812 16.960938 C 108.132812 16.203125 109.054688 15.597656 110.195312 15.597656 C 111.332031 15.597656 112.257812 16.203125 112.257812 16.960938 C 112.257812 17.707031 111.332031 18.316406 110.195312 18.316406 Z M 121.019531 23.800781 C 121.054688 23.773438 121.132812 23.707031 121.121094 23.644531 C 120.863281 22.050781 118.46875 14.328125 116.652344 12.46875 C 116.152344 11.964844 115.753906 11.464844 114.945312 10.996094 C 108.382812 7.210938 92.8125 4.925781 92.085938 4.820312 C 92.085938 4.820312 92.011719 4.804688 91.960938 4.855469 C 91.921875 4.894531 91.914062 4.96875 91.914062 4.96875 C 91.914062 4.96875 91.851562 8.160156 91.84375 8.515625 C 90.253906 7.988281 78.695312 4.292969 67.863281 3.921875 C 58.671875 3.601562 45.292969 2.425781 27.558594 13.21875 L 27.035156 13.542969 C 18.691406 18.691406 12.933594 25.046875 9.921875 32.425781 C 8.976562 34.75 7.707031 39.992188 8.964844 44.921875 C 9.507812 47.078125 10.519531 49.246094 11.882812 51.183594 C 14.960938 55.5625 20.132812 58.472656 25.699219 58.960938 C 33.558594 59.65625 39.507812 56.164062 41.625 49.621094 C 43.078125 45.105469 41.625 38.480469 36.046875 35.101562 C 31.507812 32.347656 26.628906 32.972656 23.796875 34.828125 C 21.34375 36.441406 19.953125 38.945312 19.976562 41.695312 C 20.03125 46.574219 24.277344 49.167969 27.332031 49.175781 C 28.21875 49.175781 29.109375 49.023438 30.113281 48.699219 C 30.472656 48.59375 30.808594 48.460938 31.179688 48.230469 L 31.292969 48.164062 L 31.367188 48.117188 L 31.34375 48.132812 C 32.039062 47.660156 32.457031 46.898438 32.457031 46.078125 C 32.457031 45.855469 32.425781 45.628906 32.359375 45.402344 C 32 44.167969 30.765625 43.417969 29.488281 43.648438 L 29.316406 43.691406 L 29.082031 43.761719 L 28.742188 43.875 C 28.042969 44.046875 27.515625 44.0625 27.402344 44.066406 C 27.042969 44.042969 25.289062 43.523438 25.289062 41.617188 L 25.289062 41.589844 C 25.289062 40.890625 25.570312 40.398438 25.726562 40.132812 C 26.273438 39.28125 27.769531 38.449219 29.792969 38.625 C 32.445312 38.851562 34.359375 40.199219 35.628906 42.742188 C 36.804688 45.105469 36.496094 48.011719 34.835938 50.140625 C 33.183594 52.25 30.246094 53.148438 26.339844 52.730469 C 22.398438 52.300781 19.066406 50.054688 17.203125 46.558594 C 15.375 43.144531 15.277344 39.09375 16.945312 35.980469 C 20.933594 28.527344 28.464844 28.605469 32.597656 29.3125 C 38.710938 30.359375 45.664062 35.945312 48.132812 42.390625 C 48.53125 43.417969 48.734375 44.234375 48.910156 44.976562 L 49.175781 46.089844 L 56.082031 49.429688 C 56.230469 49.5 56.28125 49.527344 56.339844 49.480469 C 56.414062 49.429688 56.371094 49.285156 56.371094 49.285156 C 56.328125 49.132812 56.226562 48.992188 56.070312 47.078125 C 55.9375 45.378906 55.671875 40.730469 58.035156 38.425781 C 58.953125 37.527344 60.351562 36.722656 61.457031 36.464844 C 65.980469 35.371094 71.289062 36.125 76.308594 41.878906 C 78.90625 44.847656 80.171875 46.203125 80.808594 46.808594 C 80.808594 46.808594 80.953125 46.945312 81.03125 47.007812 C 81.113281 47.074219 81.167969 47.132812 81.292969 47.199219 C 81.5 47.316406 89.921875 51.152344 89.921875 51.152344 C 89.921875 51.152344 90.019531 51.203125 90.09375 51.113281 C 90.167969 51.023438 90.097656 50.933594 90.097656 50.933594 C 90.042969 50.871094 84.761719 44.113281 85.699219 38.546875 C 86.441406 34.113281 90.003906 34.515625 94.933594 35.066406 C 96.542969 35.253906 98.375 35.460938 100.269531 35.503906 C 105.566406 35.535156 111.269531 34.566406 114.785156 33.046875 C 117.058594 32.066406 118.507812 31.414062 119.417969 30.597656 C 119.746094 30.328125 119.914062 29.894531 120.089844 29.425781 L 120.214844 29.117188 C 120.363281 28.734375 120.578125 27.933594 120.671875 27.496094 C 120.710938 27.304688 120.757812 27.113281 120.59375 26.992188 C 120.449219 26.878906 120.109375 27.078125 120.109375 27.078125 C 118.566406 28 114.707031 29.742188 111.097656 29.816406 C 106.621094 29.90625 97.542969 25.328125 96.605469 24.84375 C 95.972656 23.359375 95.347656 21.875 94.707031 20.394531 C 101.199219 24.632812 106.585938 26.972656 110.707031 27.332031 C 115.296875 27.738281 118.875 25.257812 120.425781 24.226562 C 120.628906 24.09375 120.832031 23.945312 121.019531 23.800781 Z M 102.601562 17.707031 C 102.667969 15.945312 103.414062 14.3125 104.710938 13.113281 C 106.011719 11.910156 107.710938 11.289062 109.492188 11.347656 C 113.160156 11.476562 116.042969 14.542969 115.917969 18.171875 C 115.847656 19.933594 115.105469 21.566406 113.808594 22.761719 C 112.503906 23.972656 110.8125 24.59375 109.023438 24.535156 C 105.359375 24.398438 102.480469 21.339844 102.601562 17.707031 Z M 102.601562 17.707031 "/>
<path style=" stroke:none;fill-rule:nonzero;fill:rgb(45.098039%,72.941176%,14.509804%);fill-opacity:1;" d="M 54.21875 55.835938 C 51.292969 55.835938 49.683594 58.285156 49.683594 59.980469 L 49.683594 62.152344 C 49.683594 64.648438 51.738281 66.191406 53.648438 66.191406 L 60.347656 66.191406 C 61.191406 66.191406 61.367188 66.738281 61.367188 67.199219 L 61.367188 68.605469 C 61.367188 68.753906 61.335938 70.101562 60.347656 70.101562 L 51.210938 70.101562 C 50.300781 70.101562 49.644531 70.726562 49.644531 71.582031 L 49.644531 71.96875 C 49.644531 72.820312 50.300781 73.441406 51.210938 73.441406 L 60.84375 73.441406 C 63.363281 73.441406 64.988281 71.707031 64.988281 69.023438 L 64.988281 66.675781 C 64.988281 64.152344 63.15625 63.023438 61.339844 63.023438 L 54.746094 63.023438 C 53.753906 63.023438 53.304688 62.289062 53.304688 61.765625 L 53.304688 60.472656 C 53.304688 59.65625 53.855469 59.183594 54.816406 59.183594 L 62.113281 59.183594 C 63.007812 59.183594 63.683594 58.546875 63.683594 57.707031 L 63.683594 57.320312 C 63.683594 56.472656 62.996094 55.835938 62.082031 55.835938 Z M 54.21875 55.835938 "/>
<path style=" stroke:none;fill-rule:nonzero;fill:rgb(45.098039%,72.941176%,14.509804%);fill-opacity:1;" d="M 81.609375 55.835938 C 80.746094 55.835938 80.046875 56.53125 80.046875 57.390625 L 80.046875 68.496094 C 80.046875 69.386719 79.316406 70.101562 78.425781 70.101562 L 73.335938 70.101562 C 72.445312 70.101562 71.714844 69.386719 71.714844 68.496094 L 71.714844 57.390625 C 71.714844 56.53125 71.011719 55.835938 70.148438 55.835938 L 69.65625 55.835938 C 68.777344 55.835938 68.085938 56.523438 68.085938 57.390625 L 68.085938 68.914062 C 68.085938 71.601562 70.21875 73.546875 73.15625 73.546875 L 78.605469 73.546875 C 81.539062 73.546875 83.667969 71.601562 83.667969 68.914062 L 83.667969 57.390625 C 83.667969 56.523438 82.980469 55.835938 82.105469 55.835938 Z M 81.609375 55.835938 "/>
<path style=" stroke:none;fill-rule:nonzero;fill:rgb(45.098039%,72.941176%,14.509804%);fill-opacity:1;" d="M 91.359375 55.835938 C 88.433594 55.835938 86.820312 58.285156 86.820312 59.980469 L 86.820312 62.152344 C 86.820312 64.648438 88.882812 66.191406 90.789062 66.191406 L 97.488281 66.191406 C 98.332031 66.191406 98.511719 66.738281 98.511719 67.199219 L 98.511719 68.605469 C 98.511719 68.753906 98.480469 70.101562 97.488281 70.101562 L 88.347656 70.101562 C 87.441406 70.101562 86.78125 70.726562 86.78125 71.582031 L 86.78125 71.96875 C 86.78125 72.820312 87.441406 73.441406 88.347656 73.441406 L 97.984375 73.441406 C 100.503906 73.441406 102.136719 71.707031 102.136719 69.023438 L 102.136719 66.675781 C 102.136719 64.152344 100.296875 63.023438 98.480469 63.023438 L 91.890625 63.023438 C 90.894531 63.023438 90.445312 62.289062 90.445312 61.765625 L 90.445312 60.472656 C 90.445312 59.65625 90.996094 59.183594 91.957031 59.183594 L 99.257812 59.183594 C 100.152344 59.183594 100.824219 58.546875 100.824219 57.707031 L 100.824219 57.320312 C 100.824219 56.472656 100.140625 55.835938 99.222656 55.835938 Z M 91.359375 55.835938 "/>
<path style=" stroke:none;fill-rule:nonzero;fill:rgb(45.098039%,72.941176%,14.509804%);fill-opacity:1;" d="M 105.238281 57.316406 L 105.238281 71.96875 C 105.238281 72.808594 105.878906 73.441406 106.730469 73.441406 L 118.519531 73.441406 C 119.429688 73.441406 120.085938 72.820312 120.085938 71.96875 L 120.085938 71.582031 C 120.085938 70.722656 119.429688 70.097656 118.519531 70.097656 L 108.863281 70.097656 L 108.863281 66.371094 L 115.941406 66.371094 C 116.84375 66.371094 117.503906 65.738281 117.503906 64.886719 L 117.503906 64.5 C 117.503906 63.644531 116.84375 63.023438 115.941406 63.023438 L 108.863281 63.023438 L 108.863281 59.179688 L 118.03125 59.179688 C 118.933594 59.179688 119.59375 58.5625 119.59375 57.703125 L 119.59375 57.316406 C 119.59375 56.460938 118.933594 55.832031 118.03125 55.832031 L 106.761719 55.835938 C 105.894531 55.835938 105.238281 56.472656 105.238281 57.316406 Z M 105.238281 57.316406 "/>
<path style=" stroke:none;fill-rule:nonzero;fill:rgb(45.098039%,72.941176%,14.509804%);fill-opacity:1;" d="M 6.53125 62.808594 C 5.054688 62.808594 3.851562 63.949219 3.851562 65.351562 L 3.851562 70.875 C 3.851562 72.300781 5.015625 73.464844 6.441406 73.464844 L 10.050781 73.464844 C 11.476562 73.464844 12.640625 72.300781 12.640625 70.875 L 12.640625 65.351562 C 12.640625 63.949219 11.4375 62.808594 9.960938 62.808594 Z M 5.75 70.65625 L 5.75 65.613281 C 5.75 65.019531 6.242188 64.539062 6.84375 64.539062 L 9.652344 64.539062 C 10.242188 64.539062 10.742188 65.03125 10.742188 65.613281 L 10.742188 70.65625 C 10.742188 71.25 10.253906 71.734375 9.652344 71.734375 L 6.820312 71.734375 C 6.21875 71.734375 5.75 71.261719 5.75 70.65625 Z M 5.75 70.65625 "/>
<path style=" stroke:none;fill-rule:nonzero;fill:rgb(45.098039%,72.941176%,14.509804%);fill-opacity:1;" d="M 20.816406 62.746094 C 19.773438 62.746094 18.988281 63.113281 18.359375 63.414062 C 17.976562 63.597656 17.644531 63.753906 17.386719 63.753906 C 17.269531 63.753906 17.167969 63.703125 17.117188 63.617188 L 16.875 63.160156 C 16.816406 63.042969 16.578125 62.808594 16.277344 62.808594 L 15.921875 62.808594 C 15.578125 62.808594 15.304688 63.113281 15.304688 63.484375 L 15.304688 77.496094 C 15.304688 77.9375 15.65625 78.28125 16.097656 78.28125 L 16.40625 78.28125 C 16.847656 78.28125 17.203125 77.933594 17.203125 77.496094 L 17.203125 72.847656 C 17.203125 72.710938 17.292969 72.5625 17.386719 72.5625 C 17.644531 72.5625 17.976562 72.710938 18.359375 72.882812 C 18.988281 73.171875 19.773438 73.523438 20.816406 73.523438 L 21.148438 73.523438 C 22.988281 73.523438 24.136719 72.480469 24.136719 70.808594 L 24.136719 65.460938 C 24.136719 63.808594 22.964844 62.746094 21.148438 62.746094 Z M 17.203125 70.546875 L 17.203125 65.722656 C 17.203125 65.054688 17.730469 64.535156 18.402344 64.535156 L 21.039062 64.535156 C 21.710938 64.535156 22.238281 65.058594 22.238281 65.722656 L 22.238281 70.546875 C 22.238281 71.203125 21.699219 71.734375 21.039062 71.734375 L 18.402344 71.734375 C 17.742188 71.734375 17.203125 71.203125 17.203125 70.546875 Z M 17.203125 70.546875 "/>
<path style=" stroke:none;fill-rule:nonzero;fill:rgb(45.098039%,72.941176%,14.509804%);fill-opacity:1;" d="M 26.796875 65.347656 L 26.796875 70.832031 C 26.796875 72.253906 27.960938 73.460938 29.335938 73.460938 L 33.058594 73.460938 C 33.519531 73.460938 33.855469 73.144531 33.855469 72.714844 L 33.855469 72.472656 C 33.855469 72.042969 33.519531 71.730469 33.058594 71.730469 L 30 71.730469 C 29.144531 71.730469 28.691406 71.316406 28.691406 70.523438 L 28.691406 68.917969 L 34.210938 68.917969 C 35.097656 68.917969 35.621094 68.382812 35.621094 67.472656 L 35.621094 65.347656 C 35.621094 63.945312 34.421875 62.804688 32.949219 62.804688 L 29.472656 62.808594 C 27.996094 62.808594 26.796875 63.945312 26.796875 65.347656 Z M 28.691406 65.589844 C 28.691406 65 29.164062 64.535156 29.761719 64.535156 L 32.660156 64.535156 C 33.257812 64.535156 33.722656 65 33.722656 65.589844 L 33.722656 67.304688 L 28.691406 67.304688 C 28.691406 67.082031 28.691406 65.589844 28.691406 65.589844 Z M 28.691406 65.589844 "/>
<path style=" stroke:none;fill-rule:nonzero;fill:rgb(45.098039%,72.941176%,14.509804%);fill-opacity:1;" d="M 43.292969 62.746094 C 42.257812 62.746094 41.472656 63.113281 40.84375 63.410156 C 40.449219 63.59375 40.113281 63.753906 39.839844 63.753906 C 39.71875 63.753906 39.667969 63.738281 39.574219 63.578125 L 39.359375 63.183594 C 39.230469 62.933594 39.019531 62.808594 38.730469 62.808594 L 38.425781 62.808594 C 38.054688 62.808594 37.785156 63.09375 37.785156 63.484375 L 37.785156 72.675781 C 37.785156 73.109375 38.132812 73.460938 38.578125 73.460938 L 38.886719 73.460938 C 39.324219 73.460938 39.683594 73.105469 39.683594 72.675781 L 39.683594 65.722656 C 39.683594 65.070312 40.222656 64.535156 40.878906 64.535156 L 43.515625 64.535156 C 44.175781 64.535156 44.714844 65.070312 44.714844 65.722656 L 44.714844 72.675781 C 44.714844 73.109375 45.0625 73.460938 45.507812 73.460938 L 45.816406 73.460938 C 46.257812 73.460938 46.613281 73.105469 46.613281 72.675781 L 46.613281 65.457031 C 46.613281 63.808594 45.445312 62.746094 43.625 62.746094 Z M 43.292969 62.746094 "/>
<path style=" stroke:none;fill-rule:nonzero;fill:rgb(45.098039%,72.941176%,14.509804%);fill-opacity:1;" d="M 122.722656 69.898438 C 123.527344 69.898438 124.167969 70.546875 124.167969 71.355469 C 124.167969 72.175781 123.527344 72.816406 122.71875 72.816406 C 121.914062 72.816406 121.261719 72.175781 121.261719 71.355469 C 121.261719 70.546875 121.914062 69.898438 122.71875 69.898438 Z M 122.71875 70.125 C 122.070312 70.125 121.542969 70.675781 121.542969 71.355469 C 121.542969 72.046875 122.070312 72.589844 122.722656 72.589844 C 123.375 72.597656 123.898438 72.046875 123.898438 71.359375 C 123.898438 70.675781 123.375 70.125 122.722656 70.125 Z M 122.441406 72.199219 L 122.183594 72.199219 L 122.183594 70.578125 C 122.320312 70.558594 122.449219 70.539062 122.644531 70.539062 C 122.894531 70.539062 123.058594 70.589844 123.15625 70.664062 C 123.253906 70.734375 123.304688 70.84375 123.304688 71 C 123.304688 71.210938 123.160156 71.339844 122.984375 71.394531 L 122.984375 71.40625 C 123.128906 71.433594 123.226562 71.5625 123.261719 71.800781 C 123.300781 72.054688 123.335938 72.148438 123.363281 72.203125 L 123.089844 72.203125 C 123.050781 72.148438 123.011719 72 122.980469 71.789062 C 122.941406 71.582031 122.835938 71.503906 122.625 71.503906 L 122.445312 71.503906 L 122.445312 72.199219 Z M 122.441406 71.300781 L 122.632812 71.300781 C 122.847656 71.300781 123.03125 71.226562 123.03125 71.023438 C 123.03125 70.882812 122.925781 70.738281 122.632812 70.738281 C 122.546875 70.738281 122.488281 70.746094 122.441406 70.753906 Z M 122.441406 71.300781 "/>
</g>
</svg>

<svg xmlns="http://www.w3.org/2000/svg" viewBox="0 0 128 82"><g fill="#73ba25"><path d="M109.434 13.29a4.61 4.61 0 00-3.329 1.226c-.898.84-1.433 1.972-1.468 3.203-.086 2.539 1.922 4.672 4.48 4.765a4.676 4.676 0 003.336-1.234 4.532 4.532 0 001.465-3.2c.09-2.538-1.918-4.671-4.484-4.76zm.761 5.026c-1.14 0-2.062-.609-2.062-1.355 0-.758.922-1.363 2.062-1.363 1.137 0 2.063.605 2.063 1.363 0 .746-.926 1.355-2.063 1.355zm10.825 5.485c.035-.028.113-.094.101-.156-.258-1.594-2.652-9.317-4.469-11.176-.5-.504-.898-1.004-1.707-1.473-6.562-3.785-22.132-6.07-22.86-6.176 0 0-.073-.015-.124.035-.04.04-.047.114-.047.114l-.07 3.547c-1.59-.528-13.149-4.223-23.98-4.594-9.192-.32-22.571-1.496-40.305 9.297l-.524.324c-8.344 5.148-14.101 11.504-17.113 18.883-.945 2.324-2.215 7.566-.957 12.496.543 2.156 1.555 4.324 2.918 6.262 3.078 4.379 8.25 7.289 13.816 7.777 7.86.695 13.809-2.797 15.926-9.34 1.453-4.516 0-11.14-5.578-14.52-4.54-2.753-9.418-2.128-12.25-.273-2.453 1.613-3.844 4.117-3.82 6.867.054 4.88 4.3 7.473 7.355 7.48.887 0 1.777-.152 2.781-.476.36-.105.696-.238 1.067-.469l.113-.066.074-.047-.023.016c.695-.473 1.113-1.235 1.113-2.055 0-.223-.031-.45-.098-.676a2.507 2.507 0 00-2.87-1.754l-.173.043-.234.07-.34.114c-.699.172-1.226.188-1.34.191-.359-.023-2.113-.543-2.113-2.449v-.027c0-.7.281-1.192.438-1.457.546-.852 2.043-1.684 4.066-1.508 2.652.227 4.566 1.574 5.836 4.117 1.176 2.363.867 5.27-.793 7.399-1.652 2.109-4.59 3.007-8.496 2.59-3.942-.43-7.274-2.676-9.137-6.172-1.828-3.414-1.926-7.465-.258-10.579 3.989-7.453 11.52-7.375 15.653-6.667 6.113 1.046 13.066 6.632 15.535 13.078.398 1.027.601 1.843.777 2.586l.266 1.113 6.906 3.34c.148.07.2.097.258.05.074-.05.031-.195.031-.195-.043-.152-.144-.293-.3-2.207-.133-1.7-.4-6.348 1.964-8.652.918-.899 2.317-1.703 3.422-1.961 4.523-1.094 9.832-.34 14.852 5.414 2.597 2.969 3.863 4.324 4.5 4.93 0 0 .144.136.222.199.082.066.137.125.262.191.207.117 8.629 3.953 8.629 3.953s.098.051.172-.039c.074-.09.004-.18.004-.18-.055-.062-5.336-6.82-4.399-12.386.742-4.434 4.305-4.031 9.235-3.48 1.609.187 3.441.394 5.336.437 5.296.031 11-.938 14.515-2.457 2.274-.98 3.723-1.633 4.633-2.45.328-.269.496-.702.672-1.171l.125-.309c.148-.383.363-1.183.457-1.62.039-.192.086-.384-.078-.505-.145-.113-.485.086-.485.086-1.543.922-5.402 2.664-9.011 2.738-4.477.09-13.555-4.488-14.493-4.972-.632-1.485-1.257-2.969-1.898-4.45 6.492 4.239 11.879 6.579 16 6.938 4.59.406 8.168-2.074 9.719-3.105.203-.133.406-.282.594-.426zm-18.418-6.094a6.55 6.55 0 012.109-4.594c1.3-1.203 3-1.824 4.781-1.765 3.668.129 6.551 3.195 6.426 6.824a6.549 6.549 0 01-2.11 4.59 6.644 6.644 0 01-4.785 1.773c-3.664-.137-6.543-3.195-6.421-6.828zm0 0" fill-rule="evenodd"/><path d="M54.219 55.836c-2.926 0-4.535 2.45-4.535 4.144v2.172c0 2.496 2.054 4.04 3.964 4.04h6.7c.843 0 1.02.546 1.02 1.007v1.406c0 .149-.032 1.497-1.02 1.497H51.21c-.91 0-1.566.625-1.566 1.48v.387c0 .851.656 1.472 1.566 1.472h9.633c2.52 0 4.144-1.734 4.144-4.418v-2.347c0-2.524-1.832-3.653-3.648-3.653h-6.594c-.992 0-1.441-.734-1.441-1.257v-1.293c0-.817.55-1.29 1.511-1.29h7.297c.895 0 1.57-.636 1.57-1.476v-.387c0-.847-.687-1.484-1.601-1.484zm0 0M81.61 55.836c-.864 0-1.563.695-1.563 1.555v11.105c0 .89-.73 1.606-1.621 1.606h-5.09c-.89 0-1.621-.715-1.621-1.606V57.391c0-.86-.703-1.555-1.567-1.555h-.492a1.55 1.55 0 00-1.57 1.555v11.523c0 2.688 2.133 4.633 5.07 4.633h5.45c2.933 0 5.062-1.945 5.062-4.633V57.391c0-.868-.688-1.555-1.563-1.555zm0 0M91.36 55.836c-2.926 0-4.54 2.45-4.54 4.144v2.172c0 2.496 2.063 4.04 3.97 4.04h6.698c.844 0 1.024.546 1.024 1.007v1.406c0 .149-.032 1.497-1.024 1.497h-9.14c-.907 0-1.567.625-1.567 1.48v.387c0 .851.66 1.472 1.567 1.472h9.636c2.52 0 4.153-1.734 4.153-4.418v-2.347c0-2.524-1.84-3.653-3.657-3.653h-6.59c-.995 0-1.445-.734-1.445-1.257v-1.293c0-.817.551-1.29 1.512-1.29h7.3c.895 0 1.567-.636 1.567-1.476v-.387c0-.847-.683-1.484-1.601-1.484zm0 0M105.238 57.316V71.97c0 .84.64 1.472 1.492 1.472h11.79c.91 0 1.566-.62 1.566-1.472v-.387c0-.86-.656-1.484-1.566-1.484h-9.657V66.37h7.078c.903 0 1.563-.633 1.563-1.484V64.5c0-.855-.66-1.477-1.563-1.477h-7.078V59.18h9.168c.903 0 1.563-.617 1.563-1.477v-.387c0-.855-.66-1.484-1.563-1.484l-11.27.004c-.866 0-1.523.637-1.523 1.48zm0 0M6.531 62.809c-1.476 0-2.68 1.14-2.68 2.543v5.523a2.596 2.596 0 002.59 2.59h3.61a2.596 2.596 0 002.59-2.59v-5.523c0-1.403-1.204-2.543-2.68-2.543zm-.781 7.847v-5.043c0-.593.492-1.074 1.094-1.074h2.808c.59 0 1.09.492 1.09 1.074v5.043c0 .594-.488 1.078-1.09 1.078H6.82c-.601 0-1.07-.472-1.07-1.078zm0 0M20.816 62.746c-1.043 0-1.828.367-2.457.668-.382.184-.714.34-.972.34-.117 0-.219-.05-.27-.137l-.242-.457a.741.741 0 00-.598-.351h-.355c-.344 0-.617.304-.617.675v14.012c0 .442.351.785.793.785h.308a.788.788 0 00.797-.785v-4.648c0-.137.09-.285.184-.285.258 0 .59.148.972.32.63.289 1.414.64 2.457.64h.332c1.84 0 2.989-1.043 2.989-2.714V65.46c0-1.652-1.172-2.715-2.989-2.715zm-3.613 7.8v-4.823a1.18 1.18 0 011.2-1.188h2.636c.672 0 1.2.524 1.2 1.188v4.824c0 .656-.54 1.187-1.2 1.187h-2.637c-.66 0-1.199-.53-1.199-1.187zm0 0M26.797 65.348v5.484c0 1.422 1.164 2.629 2.539 2.629h3.723c.46 0 .796-.316.796-.746v-.242c0-.43-.335-.743-.796-.743H30c-.855 0-1.309-.414-1.309-1.207v-1.605h5.52c.887 0 1.41-.535 1.41-1.445v-2.125c0-1.403-1.2-2.543-2.672-2.543l-3.476.004c-1.477 0-2.676 1.136-2.676 2.539zm1.894.242c0-.59.473-1.055 1.07-1.055h2.9c.597 0 1.062.465 1.062 1.055v1.715H28.69V65.59zm0 0M43.293 62.746c-1.035 0-1.82.367-2.45.664-.394.184-.73.344-1.003.344-.121 0-.172-.016-.266-.176l-.215-.394c-.129-.25-.34-.375-.629-.375h-.304c-.371 0-.64.285-.64.675v9.192c0 .433.347.785.792.785h.309a.795.795 0 00.797-.785v-6.953c0-.653.539-1.188 1.195-1.188h2.637c.66 0 1.199.535 1.199 1.188v6.953c0 .433.347.785.793.785h.308a.793.793 0 00.797-.785v-7.219c0-1.648-1.168-2.71-2.988-2.71zm0 0M122.723 69.898c.804 0 1.445.649 1.445 1.457 0 .82-.64 1.461-1.45 1.461a1.45 1.45 0 01-1.456-1.46c0-.81.652-1.458 1.457-1.458zm-.004.227c-.649 0-1.176.55-1.176 1.23 0 .692.527 1.235 1.18 1.235.652.008 1.175-.543 1.175-1.23 0-.684-.523-1.235-1.175-1.235zm-.278 2.074h-.257v-1.62c.136-.02.265-.04.46-.04.25 0 .415.05.512.125.098.07.149.18.149.336 0 .21-.145.34-.32.395v.011c.144.028.242.156.277.395.039.254.074.347.101.402h-.273c-.04-.055-.078-.203-.11-.414-.039-.207-.144-.285-.355-.285h-.18v.695zm0-.898h.192c.215 0 .398-.074.398-.278 0-.14-.105-.285-.398-.285-.086 0-.145.008-.192.016zm0 0"/></g></svg>
